src/main/resources/icons/UIDesignerIcons/com/intellij/uiDesigner/icons/hspacer.svg

<svg xmlns="http://www.w3.org/2000/svg" width="16" height="16" viewBox="0 0 16 16"><rect id="frame" width="16" height="16" fill="none"/><path fill="#9AA7B0" fill-opacity=".8" fill-rule="evenodd" d="M1 4h2v8H1V4zm12 0h2v8h-2V4zM4 7h2v2H4V7zm3 0h2v2H7V7zm3 0h2v2h-2V7z"/></svg>

<svg xmlns="http://www.w3.org/2000/svg" width="16" height="16" viewBox="0 0 16 16">
  <path fill="#9AA7B0" fill-opacity=".8" fill-rule="evenodd" d="M1,4 L3,4 L3,12 L1,12 L1,4 Z M13,4 L15,4 L15,12 L13,12 L13,4 Z M4,7 L6,7 L6,9 L4,9 L4,7 Z M7,7 L9,7 L9,9 L7,9 L7,7 Z M10,7 L12,7 L12,9 L10,9 L10,7 Z"/>
</svg>
